dist/svgs/unicons/line/brightness-low.svg

<svg xmlns="http://www.w3.org/2000/svg" viewBox="0 0 24 24"><path d="M3 11a1 1 0 101 1 1 1 0 00-1-1zm1.93 6.66a1 1 0 101.41 0 1 1 0 00-1.41 0zM6.34 6.34a1 1 0 10-1.41 0 1 1 0 001.41 0zM12 4a1 1 0 10-1-1 1 1 0 001 1zm5.66 13.66a1 1 0 101.41 0 1 1 0 00-1.41 0zM21 11a1 1 0 101 1 1 1 0 00-1-1zm-3.34-6.07a1 1 0 101.41 0 1 1 0 00-1.41 0zM12 20a1 1 0 101 1 1 1 0 00-1-1zm0-14a6 6 0 106 6 6 6 0 00-6-6zm0 10a4 4 0 114-4 4 4 0 01-4 4z"/></svg>

<svg xmlns="http://www.w3.org/2000/svg" viewBox="0 0 24 24"><path d="M3,11a1,1,0,1,0,1,1A1,1,0,0,0,3,11Zm1.93,6.66a1,1,0,1,0,1.41,0A1,1,0,0,0,4.93,17.66ZM6.34,6.34a1,1,0,1,0-1.41,0A1,1,0,0,0,6.34,6.34ZM12,4a1,1,0,1,0-1-1A1,1,0,0,0,12,4Zm5.66,13.66a1,1,0,1,0,1.41,0A1,1,0,0,0,17.66,17.66ZM21,11a1,1,0,1,0,1,1A1,1,0,0,0,21,11ZM17.66,4.93a1,1,0,1,0,1.41,0A1,1,0,0,0,17.66,4.93ZM12,20a1,1,0,1,0,1,1A1,1,0,0,0,12,20ZM12,6a6,6,0,1,0,6,6A6,6,0,0,0,12,6Zm0,10a4,4,0,1,1,4-4A4,4,0,0,1,12,16Z"/></svg>
